unlock-app/src/static/images/svg/telegram.svg

<svg width="24" height="24" xmlns="http://www.w3.org/2000/svg">
<path fill-rule="evenodd" clip-rule="evenodd" d="M17.1888 4.86899C17.3497 5.00699 17.4187 5.17949 17.3957 5.38649L15.4298 17.22C15.4068 17.358 15.3263 17.473 15.1884 17.565C15.0964 17.588 15.0159 17.5995 14.947 17.5995C14.878 17.5995 14.809 17.588 14.74 17.565L11.2566 16.1505L9.39419 18.4275C9.30222 18.5425 9.17576 18.6 9.01481 18.6C8.94583 18.6 8.88835 18.5885 8.84236 18.5655C8.75039 18.5425 8.66991 18.485 8.60094 18.393C8.53196 18.301 8.50896 18.209 8.53196 18.117V15.426L15.1884 7.24949L6.94545 14.391L3.9104 13.149C3.72646 13.08 3.62299 12.9305 3.6 12.7005C3.6 12.5165 3.68047 12.367 3.84142 12.252L16.6714 4.86899C16.7404 4.82299 16.8209 4.79999 16.9128 4.79999C17.0048 4.79999 17.0968 4.82299 17.1888 4.86899Z"/>
</svg>

<svg width="24" height="24" xmlns="http://www.w3.org/2000/svg">
    <path d="M17.189 4.869c.16.138.23.31.207.518L15.43 17.22a.512.512 0 0 1-.242.345 1.013 1.013 0 0 1-.241.034.65.65 0 0 1-.207-.034l-3.483-1.415-1.863 2.277a.46.46 0 0 1-.38.173.384.384 0 0 1-.172-.035.434.434 0 0 1-.241-.172c-.069-.092-.092-.184-.069-.276v-2.691l6.656-8.177-8.243 7.142-3.035-1.242c-.184-.069-.287-.218-.31-.448 0-.184.08-.334.241-.449l12.83-7.383a.425.425 0 0 1 .242-.069c.092 0 .184.023.276.069z" fill-rule="evenodd"/>
</svg>
